Adwaita++-Dark/places/16/folder-mail-cloud.svg

<svg height="16" width="16" xmlns="http://www.w3.org/2000/svg">
  <path d="m8 3a5 5 0 0 0 -4.7324219 3.3984375 4 4 0 0 0 -2.2675781 3.6015625 4 4 0 0 0 4 4 4 4 0 0 0 2.6582031-1.017578 5 5 0 0 0 .3417969.017578 5 5 0 0 0 2.113281-.474609 4 4 0 0 0 1.886719.474609 4 4 0 0 0 4-4 4 4 0 0 0 -4-4 4 4 0 0 0 -.007812 0 5 5 0 0 0 -3.992188-2z" fill="#e6ddff"/>
</svg>

<svg xmlns="http://www.w3.org/2000/svg" width="16" height="16">
 <defs>
  <style id="current-color-scheme" type="text/css">
   .ColorScheme-Text { color:#E6DDFF; } .ColorScheme-Highlight { color:#4285f4; }
  </style>
 </defs>
 <path style="fill:currentColor" class="ColorScheme-Text" d="M 8 3 A 5 5 0 0 0 3.2675781 6.3984375 A 4 4 0 0 0 1 10 A 4 4 0 0 0 5 14 A 4 4 0 0 0 7.6582031 12.982422 A 5 5 0 0 0 8 13 A 5 5 0 0 0 10.113281 12.525391 A 4 4 0 0 0 12 13 A 4 4 0 0 0 16 9 A 4 4 0 0 0 12 5 A 4 4 0 0 0 11.992188 5 A 5 5 0 0 0 8 3 z"/>
</svg>
